assets/images/icons/src/external-link-square.svg

<?xml version="1.0" encoding="utf-8"?>
<!-- Generated by IcoMoon.io -->
<!DOCTYPE svg PUBLIC "-//W3C//DTD SVG 1.1//EN" "http://www.w3.org/Graphics/SVG/1.1/DTD/svg11.dtd">
<svg version="1.1" xmlns="http://www.w3.org/2000/svg" xmlns:xlink="http://www.w3.org/1999/xlink" width="12" height="14" viewBox="0 0 12 14">
<path fill="#444444" d="M10 7.25v-3.75q0-0.203-0.148-0.352t-0.352-0.148h-3.75q-0.328 0-0.461 0.305-0.133 0.32 0.109 0.547l1.125 1.125-4.172 4.172q-0.148 0.148-0.148 0.352t0.148 0.352l0.797 0.797q0.148 0.148 0.352 0.148t0.352-0.148l4.172-4.172 1.125 1.125q0.141 0.148 0.352 0.148 0.094 0 0.195-0.039 0.305-0.133 0.305-0.461zM12 3.25v7.5q0 0.93-0.66 1.59t-1.59 0.66h-7.5q-0.93 0-1.59-0.66t-0.66-1.59v-7.5q0-0.93 0.66-1.59t1.59-0.66h7.5q0.93 0 1.59 0.66t0.66 1.59z"></path>
</svg>

<svg xmlns="http://www.w3.org/2000/svg" width="12" height="14" viewBox="0 0 12 14"><path fill="#444" d="M10 7.25V3.5q0-.203-.148-.352T9.5 3H5.75q-.328 0-.461.305-.133.32.109.547l1.125 1.125-4.172 4.172q-.148.148-.148.352t.148.352l.797.797q.148.148.352.148t.352-.148l4.172-4.172 1.125 1.125q.141.148.352.148.094 0 .195-.039.305-.133.305-.461zm2-4v7.5q0 .93-.66 1.59T9.75 13h-7.5q-.93 0-1.59-.66T0 10.75v-7.5q0-.93.66-1.59T2.25 1h7.5q.93 0 1.59.66T12 3.25z"/></svg>
